flaticon/business/price-tag-5.svg

<svg xmlns="http://www.w3.org/2000/svg" width="32" height="32" viewBox="0 0 24 24">
    <path d="M 23.683594 0.117188 C 23.527344 -0.0390625 23.273438 -0.0390625 23.117188 0.117188 L 21.632812 1.601562 L 12.320312 1.601562 L 0.613281 13.40625 C 0.347656 13.671875 0.199219 14.027344 0.199219 14.402344 C 0.199219 14.78125 0.347656 15.132812 0.613281 15.402344 L 8.800781 23.585938 C 9.074219 23.863281 9.433594 24 9.796875 24 C 10.160156 24 10.523438 23.859375 10.800781 23.582031 L 22.199219 11.875 L 22.199219 2.164062 L 23.683594 0.683594 C 23.839844 0.527344 23.839844 0.273438 23.683594 0.117188 Z M 21.398438 11.550781 L 10.230469 23.023438 C 9.992188 23.261719 9.605469 23.261719 9.363281 23.023438 L 1.179688 14.835938 C 0.941406 14.597656 0.941406 14.207031 1.179688 13.96875 L 12.65625 2.398438 L 20.835938 2.398438 L 18.902344 4.332031 C 18.585938 4.125 18.207031 4 17.800781 4 C 16.699219 4 15.800781 4.898438 15.800781 6 C 15.800781 7.101562 16.699219 8 17.800781 8 C 18.902344 8 19.800781 7.101562 19.800781 6 C 19.800781 5.59375 19.675781 5.214844 19.46875 4.898438 L 21.398438 2.964844 Z M 19 6 C 19 6.660156 18.460938 7.199219 17.800781 7.199219 C 17.136719 7.199219 16.601562 6.660156 16.601562 6 C 16.601562 5.339844 17.136719 4.800781 17.800781 4.800781 C 17.984375 4.800781 18.15625 4.847656 18.3125 4.921875 L 17.515625 5.71875 C 17.359375 5.875 17.359375 6.125 17.515625 6.28125 C 17.59375 6.359375 17.699219 6.398438 17.800781 6.398438 C 17.902344 6.398438 18.003906 6.359375 18.082031 6.28125 L 18.878906 5.484375 C 18.953125 5.644531 19 5.816406 19 6 Z M 19 6"/>
    <path d="M16.898438 12.511719L12.65625 16.753906C12.5 16.914062 12.5 17.164062 12.65625 17.320312 12.734375 17.398438 12.835938 17.4375 12.9375 17.4375 13.042969 17.4375 13.144531 17.398438 13.222656 17.320312L17.464844 13.078125C17.621094 12.921875 17.621094 12.667969 17.464844 12.511719 17.308594 12.355469 17.054688 12.355469 16.898438 12.511719zM18.3125 11.097656C18.238281 11.171875 18.195312 11.277344 18.195312 11.378906 18.195312 11.488281 18.238281 11.59375 18.3125 11.664062 18.386719 11.738281 18.492188 11.78125 18.597656 11.78125 18.699219 11.78125 18.804688 11.738281 18.875 11.664062 18.953125 11.59375 18.996094 11.488281 18.996094 11.378906 18.996094 11.277344 18.953125 11.171875 18.875 11.097656 18.726562 10.949219 18.464844 10.949219 18.3125 11.097656zM14.917969 7.703125C15.074219 7.546875 15.074219 7.296875 14.917969 7.136719 14.761719 6.980469 14.507812 6.980469 14.351562 7.136719L10.109375 11.382812C9.953125 11.539062 9.953125 11.789062 10.109375 11.945312 10.1875 12.023438 10.289062 12.0625 10.394531 12.0625 10.496094 12.0625 10.597656 12.023438 10.675781 11.945312zM13.503906 12.511719C13.582031 12.589844 13.683594 12.628906 13.789062 12.628906 13.890625 12.628906 13.992188 12.589844 14.070312 12.511719L16.898438 9.683594C17.054688 9.527344 17.054688 9.273438 16.898438 9.117188 16.742188 8.960938 16.488281 8.960938 16.332031 9.117188L13.503906 11.945312C13.347656 12.105469 13.347656 12.355469 13.503906 12.511719zM11.242188 14.210938L10.675781 14.773438C10.519531 14.933594 10.519531 15.183594 10.675781 15.339844 10.753906 15.417969 10.855469 15.457031 10.960938 15.457031 11.0625 15.457031 11.164062 15.417969 11.242188 15.339844L11.808594 14.773438C11.964844 14.617188 11.964844 14.367188 11.808594 14.210938 11.652344 14.054688 11.398438 14.054688 11.242188 14.210938zM7 11.5C7.101562 11.5 7.203125 11.460938 7.28125 11.382812L11.523438 7.136719C11.679688 6.980469 11.679688 6.730469 11.523438 6.574219 11.367188 6.417969 11.113281 6.417969 10.957031 6.574219L6.714844 10.816406C6.558594 10.972656 6.558594 11.226562 6.714844 11.382812 6.792969 11.460938 6.898438 11.5 7 11.5zM12.65625 5.839844C12.761719 5.839844 12.863281 5.800781 12.941406 5.722656 13.011719 5.648438 13.054688 5.546875 13.054688 5.441406 13.054688 5.335938 13.011719 5.230469 12.9375 5.15625 12.789062 5.007812 12.523438 5.007812 12.371094 5.160156 12.300781 5.234375 12.257812 5.335938 12.257812 5.441406 12.257812 5.542969 12.300781 5.648438 12.371094 5.722656 12.449219 5.800781 12.550781 5.839844 12.65625 5.839844zM8.980469 12.511719C8.902344 12.589844 8.863281 12.6875 8.863281 12.796875 8.863281 12.90625 8.902344 13.003906 8.980469 13.074219 9.050781 13.152344 9.15625 13.195312 9.265625 13.195312 9.367188 13.195312 9.472656 13.152344 9.542969 13.082031 9.621094 13.003906 9.664062 12.902344 9.664062 12.796875 9.664062 12.691406 9.621094 12.589844 9.542969 12.511719 9.394531 12.363281 9.128906 12.363281 8.980469 12.511719zM12.941406 13.644531C13.011719 13.570312 13.054688 13.46875 13.054688 13.359375 13.054688 13.257812 13.011719 13.152344 12.941406 13.074219 12.789062 12.929688 12.523438 12.929688 12.371094 13.074219 12.300781 13.152344 12.257812 13.257812 12.257812 13.359375 12.257812 13.46875 12.300781 13.570312 12.371094 13.644531 12.449219 13.71875 12.550781 13.761719 12.65625 13.761719 12.761719 13.761719 12.863281 13.71875 12.941406 13.644531zM9.859375 19.050781C10.105469 18.679688 10.222656 18.234375 10.1875 17.78125 10.15625 17.40625 9.972656 17.0625 9.675781 16.820312 9.367188 16.574219 8.964844 16.460938 8.578125 16.507812L7.457031 16.648438 5.917969 15.109375C6.367188 14.898438 6.914062 14.972656 7.28125 15.339844 7.4375 15.496094 7.691406 15.496094 7.847656 15.339844 8.003906 15.183594 8.003906 14.933594 7.847656 14.777344 7.164062 14.09375 6.105469 14.007812 5.332031 14.523438L5.019531 14.210938C4.863281 14.054688 4.609375 14.054688 4.453125 14.210938 4.296875 14.367188 4.296875 14.621094 4.453125 14.777344L4.765625 15.089844C4.519531 15.460938 4.402344 15.90625 4.441406 16.355469 4.472656 16.734375 4.652344 17.074219 4.953125 17.316406 5.257812 17.566406 5.65625 17.679688 6.046875 17.632812L7.167969 17.492188 8.703125 19.027344C8.257812 19.226562 7.699219 19.152344 7.34375 18.796875 7.1875 18.640625 6.933594 18.640625 6.777344 18.796875 6.621094 18.953125 6.621094 19.207031 6.777344 19.363281 7.15625 19.742188 7.660156 19.949219 8.191406 19.949219 8.589844 19.949219 8.972656 19.832031 9.296875 19.617188L9.542969 19.867188C9.621094 19.945312 9.726562 19.984375 9.828125 19.984375 9.929688 19.984375 10.03125 19.945312 10.109375 19.867188 10.265625 19.710938 10.265625 19.457031 10.109375 19.300781zM5.949219 16.835938C5.773438 16.859375 5.59375 16.808594 5.457031 16.695312 5.328125 16.59375 5.25 16.449219 5.238281 16.289062 5.21875 16.074219 5.265625 15.867188 5.355469 15.675781L6.453125 16.773438zM8.679688 17.300781C8.851562 17.277344 9.03125 17.332031 9.167969 17.441406 9.296875 17.546875 9.375 17.691406 9.390625 17.847656 9.40625 18.0625 9.359375 18.273438 9.269531 18.460938L8.175781 17.367188zM8.679688 17.300781"/>
</svg>

<svg xmlns="http://www.w3.org/2000/svg" width="32" height="32" viewBox="0 0 24 24">
    <path d="M23.684.117a.4.4 0 0 0-.567 0l-1.484 1.485H12.32L.613 13.406a1.413 1.413 0 0 0 0 1.996l8.188 8.184c.273.277.633.414.996.414s.726-.14 1.004-.418l11.398-11.707v-9.71L23.684.683a.4.4 0 0 0 0-.567zm-2.286 11.434L10.23 23.023a.615.615 0 0 1-.867 0L1.18 14.836a.615.615 0 0 1 0-.867l11.476-11.57h8.18l-1.934 1.933A2.01 2.01 0 0 0 17.801 4c-1.102 0-2 .898-2 2 0 1.102.898 2 2 2 1.101 0 2-.898 2-2a2.01 2.01 0 0 0-.332-1.102l1.93-1.933zM19 6a1.2 1.2 0 1 1-1.2-1.2c.184 0 .356.048.512.122l-.796.797a.396.396 0 0 0 0 .562.405.405 0 0 0 .285.117c.101 0 .203-.039.281-.117l.797-.797c.074.16.121.332.121.516zm0 0"/>
    <path d="M16.898 12.512l-4.242 4.242a.4.4 0 0 0 .567.566l4.242-4.242a.4.4 0 0 0-.567-.566zm0 0M18.313 11.098a.406.406 0 0 0-.118.28c0 .11.043.216.117.286.075.074.18.117.286.117a.39.39 0 0 0 .277-.117.394.394 0 0 0 0-.566.41.41 0 0 0-.563 0zm0 0M14.918 7.703a.4.4 0 0 0-.566-.566l-4.243 4.246a.399.399 0 1 0 .566.563zm0 0M13.504 12.512a.399.399 0 0 0 .566 0l2.828-2.828a.4.4 0 0 0-.566-.567l-2.828 2.828a.4.4 0 0 0 0 .567zm0 0M11.242 14.21l-.566.563a.4.4 0 0 0 .566.567l.567-.567a.396.396 0 0 0 0-.562.4.4 0 0 0-.567 0zm0 0M7 11.5c.102 0 .203-.04.281-.117l4.242-4.246a.396.396 0 0 0 0-.563.4.4 0 0 0-.566 0l-4.242 4.242A.4.4 0 0 0 7 11.5zm0 0M12.656 5.84c.106 0 .207-.04.285-.117a.409.409 0 0 0-.004-.566.412.412 0 0 0-.566.003.413.413 0 0 0-.113.281.42.42 0 0 0 .113.282c.078.078.18.117.285.117zm0 0M8.98 12.512a.392.392 0 0 0-.117.285c0 .11.04.207.117.277.07.078.176.121.286.121a.403.403 0 0 0 .398-.398.403.403 0 0 0-.121-.285.41.41 0 0 0-.563 0zm0 0M12.941 13.645a.415.415 0 0 0 0-.57.43.43 0 0 0-.57 0 .415.415 0 0 0 0 .57c.078.074.18.117.285.117a.416.416 0 0 0 .285-.117zm0 0M9.86 19.05c.245-.37.363-.816.328-1.269a1.386 1.386 0 0 0-.512-.96 1.489 1.489 0 0 0-1.098-.313l-1.121.14-1.539-1.539c.45-.21.996-.136 1.363.23a.4.4 0 0 0 .567 0 .396.396 0 0 0 0-.562 1.998 1.998 0 0 0-2.516-.254l-.312-.312a.4.4 0 0 0-.567.566l.313.313a1.98 1.98 0 0 0-.325 1.265c.032.38.211.72.512.961.305.25.703.364 1.094.317l1.121-.14 1.535 1.534c-.445.2-1.004.125-1.36-.23a.4.4 0 0 0-.566.566 1.998 1.998 0 0 0 2.52.254l.246.25a.405.405 0 0 0 .285.117.4.4 0 0 0 .281-.684zm-3.91-2.214a.64.64 0 0 1-.493-.14.566.566 0 0 1-.219-.407c-.02-.215.028-.422.117-.613l1.098 1.097zm2.73.465a.652.652 0 0 1 .488.14c.129.106.207.25.223.407.015.215-.032.425-.121.613l-1.094-1.094zm0 0"/>
</svg>
